!!!OTL: HERZU EIN NEUER PANTALON
!!!ARE: Europa, Mitteleuropa, Deutschland
!!!SCT: E0310
!!!YEM: Copyright 1995, estate of Helmut Schaffrath.
**kern
*ICvox
*Ivox
*M4/4
*k[b-]
*F:
{4cc
=1
4cc
4cc
4dd
4dd
=2
4.cc
8b-
4a}
{4f
=3
4a
4cc
4b-
4a
=4
2g
4f}
{4cc
=5
4cc
4cc
4dd
4dd
=6
4.cc
8b-
4a}
{4f
=7
4a
4cc
4b-
4a
=8
2g
4f}
{4ff
=9
4.ff
8ee
4dd
4dd
=10
4.ee
8dd
4cc}
{4cc
=11
4dd
4ee
4ff
4ee
=12
2dd
4cc}
{4cc
=13
4.a
8g
4f
4cc
=14
4.a
8g
4f}
{4cc
=15
4dd
4cc
4b-
4a
=16
2g
4f}
==
!!!AGN: historisches Lied, Spott - Lied
!!!ONB: ESAC (Essen Associative Code) Database: ERK1
!!!AMT: simple quadruple
!!!AIN: vox
!!!EED: Helmut Schaffrath
!!!EEV: 1.0
*-
